svg/l/GB-NIR.svg

<svg width="32" height="24" viewBox="0 0 32 24" fill="none" xmlns="http://www.w3.org/2000/svg">
<mask id="mask0" mask-type="alpha" maskUnits="userSpaceOnUse" x="0" y="0" width="32" height="24">
<rect width="32" height="24" fill="white"/>
</mask>
<g mask="url(#mask0)">
<path fill-rule="evenodd" clip-rule="evenodd" d="M0 0V24H32V0H0Z" fill="#2E42A5"/>
<mask id="mask1" mask-type="alpha" maskUnits="userSpaceOnUse" x="0" y="0" width="32" height="24">
<path fill-rule="evenodd" clip-rule="evenodd" d="M0 0V24H32V0H0Z" fill="white"/>
</mask>
<g mask="url(#mask1)">
<mask id="mask2" mask-type="alpha" maskUnits="userSpaceOnUse" x="0" y="0" width="32" height="24">
<rect width="32" height="24" fill="white"/>
</mask>
<g mask="url(#mask2)">
<path d="M-3.56323 22.2854L3.47846 25.2634L32.1597 3.23781L35.874 -1.18767L28.344 -2.18303L16.6456 7.30844L7.22956 13.7035L-3.56323 22.2854Z" fill="white"/>
<path d="M-2.59924 24.3719L0.988173 26.1001L34.5402 -1.59884H29.5031L-2.59924 24.3719Z" fill="#F50100"/>
<path d="M35.5631 22.2854L28.5214 25.2634L-0.159817 3.23781L-3.87415 -1.18767L3.65593 -2.18303L15.3543 7.30844L24.7703 13.7035L35.5631 22.2854Z" fill="white"/>
<path d="M35.3229 23.7829L31.7355 25.5111L17.4487 13.6518L13.2129 12.3267L-4.23151 -1.17246H0.805637L18.2403 12.0063L22.8713 13.5952L35.3229 23.7829Z" fill="#F50100"/>
<mask id="path-10-inside-1" fill="white">
<path fill-rule="evenodd" clip-rule="evenodd" d="M19.7777 -2H12.2222V8H-1.97253V16H12.2222V26H19.7777V16H34.0275V8H19.7777V-2Z"/>
</mask>
<path fill-rule="evenodd" clip-rule="evenodd" d="M19.7777 -2H12.2222V8H-1.97253V16H12.2222V26H19.7777V16H34.0275V8H19.7777V-2Z" fill="#F50100"/>
<path d="M12.2222 -2V-4H10.2222V-2H12.2222ZM19.7777 -2H21.7777V-4H19.7777V-2ZM12.2222 8V10H14.2222V8H12.2222ZM-1.97253 8V6H-3.97253V8H-1.97253ZM-1.97253 16H-3.97253V18H-1.97253V16ZM12.2222 16H14.2222V14H12.2222V16ZM12.2222 26H10.2222V28H12.2222V26ZM19.7777 26V28H21.7777V26H19.7777ZM19.7777 16V14H17.7777V16H19.7777ZM34.0275 16V18H36.0275V16H34.0275ZM34.0275 8H36.0275V6H34.0275V8ZM19.7777 8H17.7777V10H19.7777V8ZM12.2222 0H19.7777V-4H12.2222V0ZM14.2222 8V-2H10.2222V8H14.2222ZM-1.97253 10H12.2222V6H-1.97253V10ZM0.0274658 16V8H-3.97253V16H0.0274658ZM12.2222 14H-1.97253V18H12.2222V14ZM14.2222 26V16H10.2222V26H14.2222ZM19.7777 24H12.2222V28H19.7777V24ZM17.7777 16V26H21.7777V16H17.7777ZM34.0275 14H19.7777V18H34.0275V14ZM32.0275 8V16H36.0275V8H32.0275ZM19.7777 10H34.0275V6H19.7777V10ZM17.7777 -2V8H21.7777V-2H17.7777Z" fill="white" mask="url(#path-10-inside-1)"/>
</g>
</g>
</g>
</svg>

<svg width="32" height="24" fill="none" xmlns="http://www.w3.org/2000/svg">
  <mask id="a" maskUnits="userSpaceOnUse" x="0" y="0" width="32" height="24">
    <path fill="#fff" d="M0 0h32v24H0z"/>
  </mask>
  <g mask="url(#a)">
    <path fill-rule="evenodd" clip-rule="evenodd" d="M0 0v24h32V0H0z" fill="#2E42A5"/>
    <mask id="b" maskUnits="userSpaceOnUse" x="0" y="0" width="32" height="24">
      <path fill-rule="evenodd" clip-rule="evenodd" d="M0 0v24h32V0H0z" fill="#fff"/>
    </mask>
    <g mask="url(#b)">
      <mask id="c" maskUnits="userSpaceOnUse" x="0" y="0" width="32" height="24">
        <path fill="#fff" d="M0 0h32v24H0z"/>
      </mask>
      <g mask="url(#c)">
        <path d="M-3.563 22.285l7.041 2.979L32.16 3.238l3.714-4.426-7.53-.995-11.698 9.491-9.416 6.396-10.793 8.581z" fill="#fff"/>
        <path d="M-2.6 24.372L.989 26.1 34.54-1.599h-5.037l-32.102 25.97z" fill="#F50100"/>
        <path d="M35.563 22.285l-7.042 2.979L-.159 3.238l-3.715-4.426 7.53-.995 11.698 9.491 9.416 6.396 10.793 8.581z" fill="#fff"/>
        <path d="M35.323 23.783l-3.588 1.728-14.286-11.86-4.236-1.324-17.445-13.5H.806l17.434 13.18 4.631 1.588 12.452 10.188z" fill="#F50100"/>
        <mask id="d" fill="#fff">
          <path fill-rule="evenodd" clip-rule="evenodd" d="M19.778-2h-7.556V8H-1.973v8h14.195v10h7.556V16h14.25V8h-14.25V-2z"/>
        </mask>
        <path fill-rule="evenodd" clip-rule="evenodd" d="M19.778-2h-7.556V8H-1.973v8h14.195v10h7.556V16h14.25V8h-14.25V-2z" fill="#F50100"/>
        <path d="M12.222-2v-2h-2v2h2zm7.556 0h2v-2h-2v2zM12.222 8v2h2V8h-2zM-1.973 8V6h-2v2h2zm0 8h-2v2h2v-2zm14.195 0h2v-2h-2v2zm0 10h-2v2h2v-2zm7.556 0v2h2v-2h-2zm0-10v-2h-2v2h2zm14.25 0v2h2v-2h-2zm0-8h2V6h-2v2zm-14.25 0h-2v2h2V8zm-7.556-8h7.556v-4h-7.556v4zm2 8V-2h-4V8h4zm-16.195 2h14.195V6H-1.973v4zm2 6V8h-4v8h4zm12.195-2H-1.973v4h14.195v-4zm2 12V16h-4v10h4zm5.556-2h-7.556v4h7.556v-4zm-2-8v10h4V16h-4zm16.25-2h-14.25v4h14.25v-4zm-2-6v8h4V8h-4zm-12.25 2h14.25V6h-14.25v4zm-2-12V8h4V-2h-4z" fill="#fff" mask="url(#d)"/>
      </g>
    </g>
  </g>
</svg>
